X:1
T:All Things Are Ready
T:All Things Are Ready
T:William Augustine Ogden
T:Charles Hutchinson Gabriel, 1895
T:Public Domain Courtesy of the Cyber Hymnal™
T:Public Domain Courtesy of the Cyber Hymnal™
C:William Augustine Ogden
Z:Public Domain
Z:Courtesy of the Cyber Hymnal™
%%score ( 1 2 ) ( 3 4 )
L:1/8
M:4/4
K:Bb
V:1 treble 
V:2 treble 
V:3 bass 
V:4 bass 
V:1
 [DF]2 [DF]>[DF] [EG] [DF]2 z | [Fd]2 [Ec]>[Ec] [DB]4 | [GB]2 [EG]>[FA] [GB]>[GB] [FA]>[EG] | %3
w: 1.~“All things are rea- dy,”|come to the feast!|Come, for the ta- ble now is|
w: 2.~“All things are rea- dy,”|come to the feast!|Come, for the door is o- pen|
w: 3.~“All things are rea- dy,”|come to the feast!|Come, while He waits to wel- come|
w: 4.~“All things are rea- dy,”|come to the feast!|Leave ev- ’ry care and world- ly|
 [DF]6 F2 | [EF]2 [Ec]2 [Ec]2 (AG) | [DF]2 [FB]2 [FB]2 [Fd]2 | [Fc]2 [FA]>[FA] [=Ec]2 [GB]2 | %7
w: spread; Ye|fam- ish- ing, ye *|wea- ry, come, And|thou shalt be rich- ly|
w: wide; A|place of hon- or *|is re- served For|you at the Mas- ter’s|
w: thee; De-|lay not while this *|day is thine, To-|mor- row may ne- ver|
w: strife; Come,|feast up- on the *|love of God, And|drink ev- er- last- ing|
 ([FA]4 [EF]4) ||"^Refrain" F4- F>F G>A | B4 [DB]2 B2 | c4- [Fc]>[Ec] [DB]>[Ec] | d4- [Fd]2 [FB]2 | %12
w: fed. *|||||
w: side. *|Hear~ * ~ ~ ~|the in- vi-|ta- tion, Come, “who- ~|~ ~ so-|
w: be. *|||||
w: life. *|||||
 B4- B>B [FA]>[EG] | F4 [DB]2 [FB]2 | [Fd]3 [DB] [Ec] [Ec]3 | [DB]6 z2 |] %16
w: ||||
w: ev- * er will”;~ ~|~ ~ Praise|God~ ~ ~ ~|for|
w: ||||
w: ||||
V:2
 x8 | x8 | x8 | x6 F2 | x6 E2 | x8 | x8 | x8 || D>DD>D D2 D2 | (D>DD>D) x4 | F>FF>F x4 | %11
 F>FF>F x4 | G3/2G3/4GG3/4 G2 x2 | (D>DD>D) x4 | x8 | x8 |] %16
V:3
 [B,,B,]2 [B,,B,]>[B,,B,] [B,,B,] [B,,B,]2 z | [F,B,]2 [F,A,]>[F,A,] [B,,B,]4 | %2
w: ~ ~ ~ ~ ~|~ ~ ~ ~|
 [E,B,]2 [E,B,]>[E,B,] [E,B,]>[E,B,] [E,B,]>[E,B,] | [B,,B,]6 [D,B,]2 | %4
w: ~ ~ ~ ~ ~ ~ ~|~ ~|
 [F,A,]2 [F,A,]2 [F,A,]2 (CA,) | B,2 [B,D]2 [B,D]2 [B,,B,]2 | [C,A,]2 [C,C]>[C,C] [C,G,]2 [C,C]2 | %7
w: ~ ~ ~ ~ *|~ ~ ~ ~|~ ~ ~ ~ ~|
 ([F,C]4 [F,A,]4) || [B,,B,]>[B,,B,] [B,,B,]>[B,,B,] [B,,B,]2 [B,,F,]2 | %9
w: ~ *|Hear the in- vi- ta- tion,|
 [B,,F,]>[B,,F,] [B,,F,]>[B,,F,] [B,,F,]2 z2 | [F,A,]>[F,A,] [F,A,]>[F,A,] [F,A,]2 [F,A,]2 | %11
w: “Who- so- ev- er will.”|Hear the in- vi- ta- tion,|
 B,>B, [F,B,]>[D,B,] [B,,B,]2 [D,B,]2 | [E,B,]>[E,B,] [E,B,]>[E,B,] [E,B,]2 [E,B,]2 | %13
w: “Who- so- ev- er will.” Praise|God for full sal- va- tion,|
 [B,,B,]>[B,,B,] [B,,B,]>[B,,B,] [B,,B,]2 [D,B,]2 | [F,B,]3 [F,B,] [F,A,] F,3 | [B,,F,]6 z2 |] %16
w: “who- so- ev- er will.” *|||
V:4
 x8 | x8 | x8 | x8 | x6 F,2 | B,2 x6 | x8 | x8 || x8 | x8 | x8 | B,>B, x6 | x8 | x8 | x5 F,3 | %15
 x8 |] %16

